dist/svgs/carbon-icons/svg/info-glyph.svg

<svg xmlns="http://www.w3.org/2000/svg" fill-rule="evenodd" viewBox="0 0 16 16"><path d="M8 0C3.6 0 0 3.6 0 8s3.6 8 8 8 8-3.6 8-8-3.6-8-8-8zm0 4c.6 0 1 .4 1 1s-.4 1-1 1-1-.4-1-1 .4-1 1-1zm2 8H6v-1h1V8H6V7h3v4h1v1z"/></svg>

<svg width="16px" height="16px" viewBox="0 0 16 16" version="1.1" xmlns="http://www.w3.org/2000/svg" xmlns:xlink="http://www.w3.org/1999/xlink" fill-rule="evenodd">
	<path d="M8,0 C3.6,0 0,3.6 0,8 C0,12.4 3.6,16 8,16 C12.4,16 16,12.4 16,8 C16,3.6 12.4,0 8,0 L8,0 Z M8,4 C8.6,4 9,4.4 9,5 C9,5.6 8.6,6 8,6 C7.4,6 7,5.6 7,5 C7,4.4 7.4,4 8,4 L8,4 Z M10,12 L6,12 L6,11 L7,11 L7,8 L6,8 L6,7 L9,7 L9,11 L10,11 L10,12 L10,12 Z" id="Shape" fill="#000000"></path>
</svg>
